public/img/Star.svg

<svg width="26" height="25" viewBox="0 0 26 25" fill="none" xmlns="http://www.w3.org/2000/svg">
<path d="M11.136 2.11142C11.7347 0.268799 14.3415 0.268804 14.9402 2.11143L16.5181 6.96756C16.7858 7.79161 17.5537 8.34953 18.4202 8.34953L23.5262 8.34953C25.4637 8.34953 26.2692 10.8288 24.7018 11.9676L20.5709 14.9688C19.8699 15.4781 19.5766 16.3808 19.8444 17.2049L21.4222 22.061C22.0209 23.9036 19.912 25.4359 18.3445 24.2971L14.2137 21.2958C13.5127 20.7865 12.5635 20.7865 11.8625 21.2958L7.73164 24.2971C6.16421 25.4359 4.05525 23.9036 4.65396 22.061L6.23181 17.2049C6.49956 16.3808 6.20624 15.4781 5.50527 14.9688L1.37439 11.9676C-0.193039 10.8288 0.612516 8.34953 2.54996 8.34953L7.65601 8.34953C8.52246 8.34953 9.29037 7.79161 9.55812 6.96756L11.136 2.11142Z" fill="#FFB281"/>
</svg>

<svg xmlns="http://www.w3.org/2000/svg" width="26" height="25" fill="none"><path fill="#FFB281" d="M11.136 2.111c.599-1.842 3.206-1.842 3.804 0l1.578 4.857A2 2 0 0 0 18.42 8.35h5.106c1.938 0 2.743 2.479 1.176 3.618l-4.131 3a2 2 0 0 0-.727 2.237l1.578 4.856c.599 1.843-1.51 3.375-3.078 2.236l-4.13-3.001a2 2 0 0 0-2.351 0l-4.131 3.001c-1.568 1.139-3.677-.393-3.078-2.236l1.578-4.856a2 2 0 0 0-.727-2.236l-4.13-3.001C-.194 10.828.612 8.35 2.55 8.35h5.106a2 2 0 0 0 1.902-1.382z"/></svg>
